src/22x22/places/folder-gruvbox-material-purple-apple.svg

<?xml version="1.0" encoding="UTF-8"?>
<svg width="22" height="22" version="1" xmlns="http://www.w3.org/2000/svg">
 <rect x="1" y="8.5" width="20" height="12" rx="1" ry="1" opacity=".2"/>
 <path d="m1 16c0 0.554 0.446 1 1 1h18c0.554 0 1-0.446 1-1v-11c0-0.554-0.446-1-1-1h-9c-1.5 0-2-2-3.5-2h-5.5c-0.554 0-1 0.446-1 1" fill="#945e80"/>
 <rect x="1" y="7.5" width="20" height="12" rx="1" ry="1" opacity=".2"/>
 <rect x="3" y="6" width="16" height="8" rx="1" ry="1" fill="#E5DFC8"/>
 <rect x="1" y="8" width="20" height="12" rx="1" ry="1" fill="#d3869b"/>
 <path d="m2 2c-0.554 0-1 0.446-1 1v0.5c0-0.554 0.446-1 1-1h5.5c1.5 0 2 2 3.5 2h9c0.554 0 1 0.446 1 1v-0.5c0-0.554-0.446-1-1-1h-9c-1.5 0-2-2-3.5-2z" fill="#E5DFC8" opacity=".1"/>
 <path d="m12.989 10c-0.497 0.018-1.098 0.287-1.454 0.653-0.319 0.325-0.598 0.843-0.523 1.34 0.554 0.038 1.118-0.247 1.463-0.613 0.345-0.367 0.577-0.872 0.514-1.38zm-0.45 2.003c-0.623-0.062-0.914 0.363-1.23 0.363s-0.804-0.353-1.3196-0.343c-0.679 0.01-1.3071 0.389-1.6567 0.99-0.7055 1.21-0.1798 3.003 0.5078 3.984 0.3359 0.48 0.7469 1.003 1.2635 1.003 0.517 0 0.698-0.327 1.31-0.327 0.613 0 0.479 0.327 1.02 0.327s0.791-0.503 1.125-0.985c0.386-0.557 0.441-1.015 0.441-1.015s-0.992-0.512-1.002-1.708c-0.01-1.001 1.002-1.506 1.002-1.506-0.47-0.679-1.2-0.772-1.461-0.783z" fill="#4A413F"/>
</svg>

<svg xmlns="http://www.w3.org/2000/svg" width="22" height="22" version="1">
 <rect style="opacity:0.2" width="20" height="12" x="1" y="8.5" rx="1" ry="1"/>
 <path style="fill:#945e80" d="M 1,16 C 1,16.554 1.446,17 2,17 H 20 C 20.554,17 21,16.554 21,16 V 5 C 21,4.446 20.554,4 20,4 H 11 C 9.5,4 9,2 7.5,2 H 2 C 1.446,2 1,2.446 1,3"/>
 <rect style="opacity:0.2" width="20" height="12" x="1" y="7.5" rx="1" ry="1"/>
 <rect style="fill:#E5DFC8" width="16" height="8" x="3" y="6" rx="1" ry="1"/>
 <rect style="fill:#d3869b" width="20" height="12" x="1" y="8" rx="1" ry="1"/>
 <path style="opacity:0.1;fill:#E5DFC8" d="M 2,2 C 1.446,2 1,2.446 1,3 V 3.5 C 1,2.946 1.446,2.5 2,2.5 H 7.5 C 9,2.5 9.5,4.5 11,4.5 H 20 C 20.554,4.5 21,4.946 21,5.5 V 5 C 21,4.446 20.554,4 20,4 H 11 C 9.5,4 9,2 7.5,2 Z"/>
 <path style="fill:#4A413F" d="M 12.989,10 C 12.492,10.018 11.891,10.287 11.535,10.653 11.216,10.978 10.937,11.496 11.012,11.993 11.566,12.031 12.13,11.746 12.475,11.38 12.82,11.013 13.052,10.508 12.989,10 Z M 12.539,12.003 C 11.916,11.941 11.625,12.366 11.309,12.366 10.993,12.366 10.505,12.013 9.9894,12.023 9.3104,12.033 8.6823,12.412 8.3327,13.013 7.6272,14.223 8.1529,16.016 8.8405,16.997 9.1764,17.477 9.5874,18 10.104,18 10.621,18 10.802,17.673 11.414,17.673 12.027,17.673 11.893,18 12.434,18 12.975,18 13.225,17.497 13.559,17.015 13.945,16.458 14,16 14,16 14,16 13.008,15.488 12.998,14.292 12.988,13.291 14,12.786 14,12.786 13.53,12.107 12.8,12.014 12.539,12.003 Z"/>
</svg>
